X:1
T:Pretty Saro
M:3/4
L:1/4
K:G
 D| G E D| G A B/2A/2| G- D E| D2 D/2D/2| G E D| G A A/2A/2| B d d|\
 A2 A| B- d d/2e/2| A GG/2-A/2| B D E| D2 D/2D/2| G E D/2D/2| G AB/2-A/2|\
 G D E| D2||
